X:98
T:Gatehouse Maid (reel), The 
B:CRE2.233 (Ainnir Ti and Gheata)
F:file ID: cre.2/098gate_m
M:C
R:reel % A-B-A
Q:180
K:Am
A2Bd edBA|GGGA GED2|GABd edBd|egdB B2dB|
A2Bd edBA|GGGA GEDE|A2Bd edBd|(3efg dB BAA||
e|a2ea age^f|g2dg Bgdg|a2ea agab|dedB BAAe|
agab age^f|ggge ggge|dega (3bag a^f|gedB B2GB||

%%%

